X:31
T:GB/7d/31B Jig Tune-0
%%VWML:GB-7d-31B-0
F:http://www.vwml.org/record/GB/7d/31B
T:Winlaton Sword Dance Tunes 2 of 2
C:Transcribed by Simon Furey and Lewis Jones
L:1/8
M:6/8
I:linebreak $
K:Am
e | eA A eAA | BA B GBd | eA A eAA | g^f g2 ed |$ eA A eAA | BA B GAB | cd e g2 B | cAA A2 |]

